!!!COM: Ulenberg, Caspar
!!!CDT: 1548/12/24-1617/02/16
!!!OPR: Die Psalmen Davids
!!!ONM: 4
!!!OTL@@LA: Cum invocarem
!!!OTL-incipit@@DE: Zu dir rieff ich in böser zeit
**kern	**text
*Ivox	*
*clefC4	*
*k[b-]	*
*M2/1	*
*met(C|)	*
*MM180	*
=	=
1G	Zu
2G	dir
2G	rieff
=	=
2B-	ich
2G	in
2B-	bö-
2c	-ser
=	=
1d	zeit/
1r	.
=	=
1d	O
2d	Got
2d	mei-
=	=
2B-	-ner
2d	ge-
2c	-rech-
2c	-tig-
=	=
1B-	-keit/
1r	.
=	=
1B-	Du
2c	hast
2d	mich
=	=
2c	auch
2B-	er-
1A	-hö-
=	=
1G	-ret/
1r	.
=	=
1D	Da
2G	mich
2A	das
=	=
2B-	el-
2A	-lend
1G	dren-
=	=
1E	-get
1D	sehr/
=	=
1r	.
1A	Has
=	=
2B-	tu
2c	mich
2d	aus
2d	den
=	=
1c	eng-
1B-	-sten
=	=
1A	schwer/
1r	.
=	=
1d	Auff
2B-	wel-
2d	-ten
=	=
2c	plan
2B-	ge-
1A	-fü-
=	=
0Gll;	-ret
==	==
*-	*-
!!!RDF**kern: l = terminal long
!!!RDF**kern: i = editorial accidental
!!!AGN: Psalm
!!!YOR: https://mdz-nbn-resolving.de/details:bsb11116252
!!!YOO: München, Bayerische Staatsbibliothek
!!!URL-scan: https://www.digitale-sammlungen.de/de/view/bsb11116252?page=61
!!!IIIF: https://api.digitale-sammlungen.de/iiif/presentation/v2/bsb11116252/manifest
!!!EED: Wolfgang Drescher
!!!END: 2022/11/22
!!!ENC: Wolfgang Drescher
!!!EEV: 2022/11/22
!!!title: @{ONM}. @{OTL} / <i>@{OTL-incipit@@DE}</i>